apex/img/kill-icon.svg

<svg width="24" height="24" viewBox="0 0 24 24" fill="none" xmlns="http://www.w3.org/2000/svg">
<path d="M15.0624 12C15.0624 11.6116 15.3774 11.2969 15.7656 11.2969H20.9559C20.6151 6.8963 17.1037 3.38489 12.7031 3.04413V8.23444C12.7031 8.62262 12.3884 8.93756 12 8.93756C11.6116 8.93756 11.2969 8.62262 11.2969 8.23444V3.04413C6.8963 3.38489 3.38489 6.8963 3.04413 11.2969H8.23444C8.62262 11.2969 8.93756 11.6116 8.93756 12C8.93756 12.3884 8.62262 12.7031 8.23444 12.7031H3.04413C3.38489 17.1037 6.8963 20.6151 11.2969 20.9559V15.7656C11.2969 15.3774 11.6116 15.0624 12 15.0624C12.3884 15.0624 12.7031 15.3774 12.7031 15.7656V20.9559C17.1037 20.6151 20.6151 17.1037 20.9559 12.7031H15.7656C15.3774 12.7031 15.0624 12.3884 15.0624 12ZM12 12.7031C11.6133 12.7031 11.2969 12.3882 11.2969 12C11.2969 11.6118 11.6133 11.2969 12 11.2969C12.3867 11.2969 12.7031 11.6118 12.7031 12C12.7031 12.3882 12.3867 12.7031 12 12.7031Z" fill="white"/>
<path d="M12.7031 3.04413V0.703125C12.7031 0.314758 12.3884 0 12 0C11.6116 0 11.2969 0.314758 11.2969 0.703125V3.04413C11.5289 3.02618 11.7634 3.01685 12 3.01685C12.2366 3.01685 12.4711 3.02618 12.7031 3.04413Z" fill="white"/>
<path d="M11.2969 20.9559V23.2969C11.2969 23.6852 11.6116 24 12 24C12.3884 24 12.7031 23.6852 12.7031 23.2969V20.9559C12.4711 20.9738 12.2366 20.9832 12 20.9832C11.7634 20.9832 11.5289 20.9738 11.2969 20.9559Z" fill="white"/>
<path d="M23.2969 11.2969H20.9559C20.9738 11.5289 20.9832 11.7634 20.9832 12C20.9832 12.2366 20.9738 12.4711 20.9559 12.7031H23.2969C23.6852 12.7031 24 12.3884 24 12C24 11.6116 23.6852 11.2969 23.2969 11.2969Z" fill="white"/>
<path d="M3.04413 11.2969H0.703125C0.314758 11.2969 0 11.6116 0 12C0 12.3884 0.314758 12.7031 0.703125 12.7031H3.04413C3.02618 12.4711 3.01685 12.2366 3.01685 12C3.01685 11.7634 3.02618 11.5289 3.04413 11.2969Z" fill="white"/>
</svg>

<svg width="24" height="24" fill="none" xmlns="http://www.w3.org/2000/svg"><path d="M15.062 12c0-.388.315-.703.704-.703h5.19a8.985 8.985 0 00-8.253-8.253v5.19a.703.703 0 01-1.406 0v-5.19a8.985 8.985 0 00-8.253 8.253h5.19a.703.703 0 010 1.406h-5.19a8.985 8.985 0 008.253 8.253v-5.19a.703.703 0 111.406 0v5.19a8.985 8.985 0 008.253-8.253h-5.19a.703.703 0 01-.704-.703zM12 12.703a.704.704 0 010-1.406.704.704 0 010 1.406zm.703-9.659V.704a.703.703 0 10-1.406 0v2.34a9.114 9.114 0 011.406 0z" fill="#fff"/><path d="M11.297 20.956v2.34a.703.703 0 101.406 0v-2.34a9.139 9.139 0 01-1.406 0zm12-9.659h-2.341a9.139 9.139 0 010 1.406h2.34a.703.703 0 100-1.406zm-20.253 0H.704a.703.703 0 100 1.406h2.34a9.114 9.114 0 010-1.406z" fill="#fff"/></svg>
